X: 43536
T: You May If You Please
R: jig
M: 6/8
K: Dmajor
|:"D"A3 AFA|"G"BGB "D"AFA|"G"Bcd "Em"efg|"D"fed "A"cBA|
"D"A3 AFA|"G"BGB "D"AFA|"Em7"Bgf "A7"edc|"D"d3 D3:|
|:"D"a2 g "Bm7"fed|"Em7"e2 d "A"cBA|"G"Bcd "Em7"efg|"D"fed "A"cBA|
"F#m"a2 g "Bm7"fed|"Em7"e2 d "A"cBA|"G"Bgf "A7"edc|"D"d3 D3:|

